static/img/index/partners/1Password_monochrome.svg

<?xml version="1.0" encoding="UTF-8"?>
<svg width="364px" height="68px" viewBox="0 0 364 68" version="1.1" xmlns="http://www.w3.org/2000/svg" xmlns:xlink="http://www.w3.org/1999/xlink">
    <title>1Password wordmark / Black, monochrome icon / 1P-wordmark</title>
    <g id="1Password-wordmark-/-Black,-monochrome-icon-/-1P-wordmark" stroke="none" stroke-width="1" fill="none" fill-rule="evenodd">
        <g id="zzz---document-symbol-/-1Password" fill="#051627">
            <path d="M157.257829,16.9693496 C161.965945,16.9693496 166.574808,17.8164565 169.351358,18.5824063 L169.588943,18.6487678 L169.812632,17.516748 L189.007943,17.516748 L189.007943,23.8140239 L184.759178,24.2692486 L190.828842,45.5889418 L191.359937,45.5889418 L198.112438,18.5030683 L209.568928,18.5030683 L216.093816,45.5889418 L216.549041,45.5889418 L222.239351,24.2692486 L217.914715,23.8140239 L218.901036,17.516748 L234.833902,17.516748 L234.832837,21.7634495 C234.488507,22.4441887 234.168826,23.1395143 233.874968,23.848253 L232.102554,24.1933778 C231.081216,24.3392832 230.621053,24.695629 230.317371,25.5996596 L230.281655,25.7107937 L220.949547,57.0454317 L208.961962,57.0454317 L203.04404,31.6287157 L202.588815,31.6287157 L196.595022,57.0454317 L182.938279,57.0454317 L173.378559,25.6349229 C173.087721,24.7624088 172.727203,24.5866942 171.896346,24.3732362 L171.785273,24.3451194 L171.116184,24.2015769 L171.159233,24.3731545 L171.159233,30.1252644 L163.075361,29.5964761 L162.319657,25.6643817 C162.245162,25.0595032 162.0931,24.7574483 161.56549,24.6060365 L161.324339,24.5364561 C160.302931,24.2591852 158.613097,24.001158 156.730219,24.001158 C152.952472,24.001158 150.836657,25.4376483 150.836657,27.8571623 C150.836657,30.501036 153.859891,31.3852515 157.60841,32.2448643 L160.139167,32.8208314 L160.489304,32.9040638 C166.216232,34.2822145 172.292788,36.6110256 172.292788,45.0197246 C172.292788,54.2443136 164.814092,58.0242276 155.218813,58.0242276 C148.525903,58.0242276 141.976377,56.3044709 140.379186,55.3766033 L140.259885,55.3026588 L140.259885,44.3395245 L148.343758,44.944403 L149.100229,49.2538739 L149.123833,49.4381426 C149.207845,49.9903744 149.391517,50.2512445 150.006459,50.3875407 L150.183651,50.444125 L150.385423,50.5032224 L150.61137,50.564026 L150.871164,50.6281091 C151.961009,50.885176 153.655291,51.143831 155.82399,51.143831 C159.826759,51.143831 162.0931,50.0101642 162.0931,47.2125051 C162.0931,44.2376929 159.169327,43.3114839 155.407589,42.6338914 L153.687086,42.3239183 L152.954236,42.1849293 C147.06205,41.0376121 140.563242,38.9606747 140.563242,30.2013546 C140.563242,20.8261224 148.570315,16.9693496 157.257829,16.9693496 Z M87.5859324,16.9693496 C98.8920953,16.9693496 103.497519,20.0088859 103.588497,30.3395352 L103.589874,30.6548213 L103.590126,49.1374848 L103.592672,49.3403322 L103.599134,49.5206855 L103.611543,49.68606 C103.669605,50.2530422 103.876648,50.3984606 104.589196,50.5097298 L104.792099,50.5389525 L107.848834,51.0516005 L107.848834,44.3395245 L115.888613,44.944403 L116.640958,49.2538739 C116.714283,49.934074 116.86628,50.2368975 117.542244,50.3875407 L117.718471,50.444125 L117.919142,50.5032224 L118.143856,50.564026 L118.402233,50.6281091 C119.486133,50.885176 121.171174,51.143831 123.328044,51.143831 C127.30898,51.143831 129.562959,50.0101642 129.562959,47.2125051 C129.562959,44.3368533 126.845758,43.3755074 123.285181,42.702546 L121.179345,42.3195187 L120.451248,42.1804409 L119.923013,42.0744199 L119.408641,41.9658792 C113.858132,40.7627085 108.150536,38.4322629 108.150536,30.2013546 C108.150536,20.8261224 116.113935,16.9693496 124.754062,16.9693496 C130.490012,16.9693496 136.086153,18.2412478 138.35505,19.0766006 L138.579641,19.1621302 L138.579641,30.1252644 L130.539862,29.5964761 L129.788281,25.6643817 C129.714192,25.0595032 129.562959,24.7574483 129.038227,24.6060365 C128.061325,24.3039816 126.257988,24.001158 124.22933,24.001158 C120.472189,24.001158 118.367914,25.4376483 118.367914,27.8571623 C118.367914,30.54662 121.479233,31.41464 125.296194,32.2890842 L127.083658,32.6961901 C133.019163,34.0565903 139.707013,36.1740493 139.707013,45.0197246 C139.707013,54.243545 132.26911,58.0242276 122.726168,58.0242276 C116.647426,58.0242276 110.701029,56.5920383 108.503794,55.6359695 L108.398771,55.589342 L108.398771,57.1165256 L94.5731925,57.1165256 L93.8208476,53.033788 L93.4458209,52.9584664 C90.591493,55.7561255 86.8343513,58.0242276 80.82323,58.0242276 C71.3574325,58.0242276 69.8535065,51.5227447 69.8535065,46.83436 C69.8535065,39.3493692 74.4199804,35.8658696 83.6240754,35.2100351 L92.5445346,34.5869158 L92.5443134,30.2826776 L92.5405135,29.8543134 L92.5346568,29.5714319 L92.5196464,29.1579532 L92.5047543,28.8897711 C92.3313499,26.1943327 91.4608676,24.4553933 87.510316,24.4553933 L87.0496915,24.4586795 L86.7535321,24.4650516 C83.6898337,24.5517451 82.0756023,25.2897677 82.0266042,29.3291567 L82.0254542,29.5211545 L71.4307575,28.6126839 C71.4307575,18.5086693 80.4895937,16.9989717 87.3778726,16.9697881 L87.5859324,16.9693496 Z M359.821246,0 L359.823809,48.9923172 L359.830299,49.1674171 C359.866554,49.8251392 360.039061,49.983535 360.803939,50.103521 L364.567317,50.6575444 L364.567317,56.5775829 L350.774049,56.5775829 L350.032475,52.3810999 L349.513374,52.3061628 C346.398765,55.3785878 342.765055,57.4768293 337.351568,57.4768293 C328.601,57.4768293 322.965041,51.8565396 322.965041,37.5435352 C322.965041,22.4811588 330.454934,16.7859319 338.6864,16.7859319 C342.885119,16.7859319 346.165152,18.2141567 348.940414,20.2340746 L349.142587,20.3829173 L349.142587,8.99246351 C349.142587,8.28253218 348.87636,7.77437081 348.280852,7.53169622 L348.178542,7.49371959 L344.099887,6.06991287 L344.915618,0 L359.821246,0 Z M316.685536,16.4219512 C318.381612,16.4219512 321.717228,16.7070886 323.178065,17.0706388 L323.322355,17.1085187 L323.322355,30.9924383 L314.168122,30.6872972 L313.405269,26.6441777 C313.252699,25.9576103 313.023843,25.8050397 312.413561,25.8050397 C310.546815,25.8050397 308.342197,27.2916787 307.135297,28.2933712 L306.921021,28.4750243 L306.921385,48.8222013 C306.927919,49.8922602 307.032599,50.1280731 308.038012,50.2087511 L315.693827,50.8266091 L315.693827,56.9294309 L290.748543,56.9294309 L290.748543,50.7503238 L294.181381,50.2926122 C295.214923,50.1449633 295.391149,49.9258713 295.401443,48.8748139 L295.401945,26.4153219 C295.401945,25.6143266 295.193421,25.0913626 294.510981,24.8464302 L294.410236,24.8133312 L290.332865,23.3775498 L290.29999,23.3021562 L291.12997,17.1848039 L304.556178,17.1848039 L305.471601,23.2876257 L305.929313,23.2876257 C308.446727,19.3970768 311.803279,16.4219512 316.685536,16.4219512 Z M52.9667822,2.1895935 C66.9883819,2.1895935 71.2310714,9.59968578 71.2310714,18.2941121 C71.2310714,31.3179507 63.4332957,36.6354601 50.8488167,36.7405079 L50.4660068,36.7420983 L44.9336383,36.7420983 L44.9347725,49.0539418 L44.9391366,49.2454701 L44.9486518,49.421626 C44.9968857,50.0540675 45.1922648,50.2068868 45.9460245,50.3230944 L46.147046,50.3517346 L56.9837394,50.9566244 L56.9837394,56.9294309 L27.2764382,56.9294309 L27.2763136,56.9119141 L27.2432988,56.9294309 L0.879888551,56.9294309 L0.879888551,50.9826907 L7.33825974,50.4546697 C8.32032718,50.3846751 8.51617053,50.1180288 8.53791823,49.1650792 L8.5401368,48.9501927 L8.54013668,22.9538391 C8.54013668,21.8755331 7.72948837,22.0534458 2.08338209,23.9667424 L0,17.7934888 L12.9042235,10.4005691 L19.8816108,10.4005691 L19.8818621,49.0602029 L19.8844081,49.2636379 L19.8908701,49.4459691 C19.9294216,50.192096 20.1185363,50.3779274 20.9816415,50.4471721 L21.0842515,50.4546697 L27.2432988,50.9826907 L27.2763136,50.9989169 L27.2764382,50.9566244 L32.0507158,50.4270576 C33.0401374,50.2864547 33.2389805,50.0795675 33.2610955,49.1302522 L33.2633531,48.9152174 L33.2633531,10.2798986 C33.2633531,9.18400017 33.1208104,8.86377494 32.1537281,8.77560527 L32.0507158,8.76728977 L27.2764382,8.23849156 L27.2764382,2.1895935 L52.9667822,2.1895935 Z M92.3322724,40.4662383 L87.2239131,40.841035 C82.793614,41.1404153 81.2160549,42.2640437 81.2160549,45.2616556 C81.2160549,48.2600294 83.0188705,49.3836578 85.4974556,49.3836578 C87.9742359,49.3836578 90.4510162,48.0441527 92.1730645,46.8022833 L92.3322724,46.6861879 L92.3322724,40.4662383 Z M341.966644,25.4850092 C336.525697,25.4850092 334.357856,30.580145 334.311865,37.191038 L334.311116,37.4071432 C334.311116,44.7264281 336.39223,48.8010815 341.074738,48.8010815 C343.529603,48.8010815 346.194886,47.3769547 348.18483,45.7046229 L348.358638,45.55645 L348.358638,27.7487055 C346.5005,26.4659443 344.122084,25.4850092 341.966644,25.4850092 Z M49.2095493,10.4917943 L44.7769595,10.4917943 L44.7769595,28.5505973 L48.6818832,28.550254 L48.9774298,28.5474392 L49.4132858,28.5376291 L49.6956608,28.5273104 L50.1109115,28.5058694 C54.585108,28.232162 58.9734642,26.5344786 58.9734642,18.9590007 C58.9734642,11.764732 54.5408744,10.4917943 49.2095493,10.4917943 Z" id="1Passw---rd"></path>
        </g>
        <g id="1Password-logo-/-dark-grey-/-128px" transform="translate(230.000000, 4.000000)" fill="#051627" fill-rule="nonzero">
            <path d="M32,0 C49.6731323,0 64,14.3268677 64,32 C64,49.673684 49.6731323,64 32,64 C14.3268677,64 0,49.673684 0,32 C0,14.3268677 14.3268677,0 32,0 Z M32,3 C15.9837219,3 3,15.9837219 3,32 C3,48.0166312 15.9835234,61 32,61 C48.0164766,61 61,48.0166312 61,32 C61,15.9837219 48.0162781,3 32,3 Z M32,8 C45.2547193,8 56,18.7452807 56,32 C56,45.255057 45.2549023,56 32,56 C18.7450977,56 8,45.255057 8,32 C8,18.7452807 18.7452807,8 32,8 Z M32,13 C21.5067222,13 13,21.5067222 13,32 C13,42.4938056 21.5067222,51 32,51 C42.4932778,51 51,42.4938056 51,32 C51,21.5067222 42.4932778,13 32,13 Z M35.0654649,18.5 C35.8577368,18.5 36.5,19.2154176 36.5,20.09793 L36.5,32.9697398 C36.5,33.2522714 36.3992413,33.5232313 36.2198896,33.7230113 L35.3233052,34.7217175 C34.9498246,35.1377379 34.9498246,35.8122401 35.3233052,36.2282604 L36.2198896,37.2269667 C36.3992413,37.4267467 36.5,37.6977065 36.5,37.9802381 L36.5,43.90207 C36.5,44.7845824 35.8577368,45.5 35.0654649,45.5 L28.9345351,45.5 C28.1422632,45.5 27.5,44.7845824 27.5,43.90207 L27.5098286,31.5003501 C27.5098286,31.2178185 27.6105873,30.9468587 27.789939,30.7470787 L28.6865234,29.7483724 C29.060004,29.3323521 29.060004,28.6578499 28.6865234,28.2418295 L27.789939,27.2431233 C27.6105873,27.0433433 27.5098286,26.7723834 27.5,26.5048828 L27.5,20.09793 C27.5,19.2154176 28.1422632,18.5 28.9345351,18.5 L35.0654649,18.5 Z" id="Combined-Shape"></path>
        </g>
    </g>
</svg>

<svg width="364" height="68" xmlns="http://www.w3.org/2000/svg"><g fill="#051627" fill-rule="evenodd"><path d="M157.258 16.97c4.708 0 9.317.846 12.093 1.612l.238.067.224-1.132h19.195v6.297l-4.249.455 6.07 21.32h.53l6.753-27.086h11.457l6.525 27.086h.455l5.69-21.32-4.324-.455.986-6.297h15.933l-.001 4.246a30.96 30.96 0 0 0-.958 2.085l-1.772.345c-1.022.146-1.482.503-1.786 1.407l-.035.11-9.332 31.335h-11.988l-5.918-25.416h-.455l-5.994 25.416h-13.657l-9.56-31.41c-.29-.873-.65-1.048-1.482-1.262l-.11-.028-.67-.143.043.171v5.752l-8.084-.529-.755-3.932c-.075-.604-.227-.907-.755-1.058l-.24-.07c-1.022-.277-2.712-.535-4.595-.535-3.778 0-5.893 1.437-5.893 3.856 0 2.644 3.023 3.528 6.771 4.388l2.531.576.35.083c5.727 1.378 11.804 3.707 11.804 12.116 0 9.224-7.479 13.004-17.074 13.004-6.693 0-13.243-1.72-14.84-2.647l-.12-.074V44.34l8.085.604.756 4.31.024.184c.084.552.268.813.882.95l.178.056.201.06.226.06.26.064c1.09.257 2.784.516 4.953.516 4.003 0 6.27-1.134 6.27-3.931 0-2.975-2.925-3.902-6.686-4.58l-1.72-.31-.734-.138c-5.892-1.147-12.39-3.224-12.39-11.984 0-9.375 8.006-13.232 16.694-13.232Zm-69.672 0c11.306 0 15.912 3.039 16.002 13.37l.002.315v18.482l.003.203.006.18.013.166c.058.567.265.712.977.824l.203.029 3.057.513V44.34l8.04.604.752 4.31c.073.68.225.983.901 1.134l.176.056.201.06.225.06.258.064c1.084.257 2.77.516 4.926.516 3.981 0 6.235-1.134 6.235-3.931 0-2.876-2.717-3.837-6.278-4.51l-2.106-.383-.728-.14-.528-.106-.514-.108c-5.55-1.203-11.258-3.534-11.258-11.765 0-9.375 7.963-13.232 16.603-13.232 5.736 0 11.332 1.272 13.601 2.108l.225.085v10.963l-8.04-.529-.752-3.932c-.074-.604-.225-.907-.75-1.058-.977-.302-2.78-.605-4.809-.605-3.757 0-5.861 1.437-5.861 3.856 0 2.69 3.111 3.558 6.928 4.432l1.788.407c5.935 1.36 12.623 3.478 12.623 12.324 0 9.224-7.438 13.004-16.98 13.004-6.08 0-12.026-1.432-14.223-2.388l-.105-.047v1.528H94.573l-.752-4.083-.375-.076c-2.855 2.798-6.612 5.066-12.623 5.066-9.466 0-10.97-6.501-10.97-11.19 0-7.485 4.567-10.968 13.771-11.624l8.92-.623v-4.304l-.003-.429-.006-.283-.015-.413-.015-.268c-.174-2.696-1.044-4.435-4.995-4.435l-.46.004-.296.006c-3.064.087-4.678.825-4.727 4.864l-.002.192-10.594-.908c0-10.104 9.059-11.614 15.947-11.643h.208ZM359.82 0l.003 48.992.006.175c.037.658.21.817.974.937l3.763.554v5.92h-13.793l-.742-4.197-.519-.075c-3.114 3.073-6.748 5.17-12.161 5.17-8.751 0-14.387-5.62-14.387-19.932 0-15.063 7.49-20.758 15.721-20.758 4.2 0 7.48 1.428 10.254 3.448l.203.149V8.993c0-.71-.267-1.219-.862-1.461l-.102-.038-4.08-1.424.817-6.07h14.905Zm-43.135 16.422c1.696 0 5.031.285 6.492.649l.144.038v13.883l-9.154-.305-.763-4.043c-.152-.686-.381-.839-.991-.839-1.867 0-4.072 1.487-5.279 2.488l-.214.182v20.347c.007 1.07.112 1.306 1.117 1.387l7.656.618v6.102h-24.945V50.75l3.432-.457c1.034-.148 1.21-.367 1.22-1.418v-22.46c0-.8-.208-1.324-.89-1.569l-.1-.033-4.078-1.435-.033-.076.83-6.117h13.426l.916 6.103h.457c2.518-3.89 5.874-6.866 10.757-6.866ZM52.966 2.19c14.022 0 18.265 7.41 18.265 16.104 0 13.024-7.798 18.341-20.382 18.447l-.383.001h-5.532v12.312l.005.191.01.177c.048.632.243.785.997.901l.201.029 10.837.605v5.972H27.276v-.017l-.033.017H.88v-5.946l6.458-.528c.982-.07 1.178-.337 1.2-1.29l.002-.215V22.954c0-1.078-.81-.9-6.457 1.013L0 17.793l12.904-7.392h6.978v38.66l.002.203.007.182c.038.746.228.932 1.09 1.001l.103.008 6.16.528.032.016v-.042l4.775-.53c.99-.14 1.188-.347 1.21-1.297l.002-.215V10.28c0-1.096-.142-1.416-1.11-1.504l-.102-.009-4.775-.529V2.19h25.69Zm39.366 38.276-5.108.375c-4.43.3-6.008 1.423-6.008 4.42 0 2.999 1.803 4.123 4.281 4.123 2.477 0 4.954-1.34 6.676-2.582l.16-.116v-6.22Zm249.635-14.981c-5.441 0-7.61 5.095-7.655 11.706v.216c0 7.32 2.08 11.394 6.763 11.394 2.455 0 5.12-1.424 7.11-3.096l.174-.149V27.75c-1.858-1.283-4.237-2.264-6.392-2.264ZM49.21 10.492h-4.433V28.55h3.905l.295-.004.436-.01.283-.01.415-.021c4.474-.274 8.862-1.972 8.862-9.547 0-7.194-4.432-8.467-9.763-8.467Z"/><path d="M262 4c17.673 0 32 14.327 32 32 0 17.674-14.327 32-32 32-17.673 0-32-14.326-32-32 0-17.673 14.327-32 32-32Zm0 3c-16.016 0-29 12.984-29 29 0 16.017 12.984 29 29 29s29-12.983 29-29c0-16.016-12.984-29-29-29Zm0 5c13.255 0 24 10.745 24 24s-10.745 24-24 24-24-10.745-24-24 10.745-24 24-24Zm0 5c-10.493 0-19 8.507-19 19 0 10.494 8.507 19 19 19s19-8.506 19-19c0-10.493-8.507-19-19-19Zm3.065 5.5c.793 0 1.435.715 1.435 1.598V36.97c0 .282-.1.553-.28.753l-.897.999a1.153 1.153 0 0 0 0 1.506l.897.999c.18.2.28.47.28.753v5.922c0 .883-.642 1.598-1.435 1.598h-6.13c-.793 0-1.435-.715-1.435-1.598l.01-12.402c0-.282.1-.553.28-.753l.897-.999a1.153 1.153 0 0 0 0-1.506l-.897-.999c-.18-.2-.28-.47-.29-.738v-6.407c0-.883.642-1.598 1.435-1.598h6.13Z" fill-rule="nonzero"/></g></svg>
